;FLAVOR:Marlin
;TIME:1102
;Filament used: 0.532094m
;Layer height: 0.2
;MINX:131.958
;MINY:133.495
;MINZ:0.2
;MAXX:168.04
;MAXY:178.04
;MAXZ:13.6
;Generated with Cura_SteamEngine 4.13.1
M140 S70
M105
M190 S70
M104 S200
M105
M109 S200
M82 ;absolute extrusion mode
G28 ; home all axes
G29;
 M117 Purge extruder
 G92 E0 ; reset extruder
 G1 Z1.0 F3000 ; move z up little to prevent scratching of surface
 G1 X2 Y20 Z0.3 F5000.0 ; move to start-line position
 G1 X2 Y200.0 Z0.3 F1500.0 E15 ; draw 1st line
 G1 X2 Y200.0 Z0.4 F5000.0 ; move to side a little
 G1 X2 Y20 Z0.4 F1500.0 E30 ; draw 2nd line
 G92 E0 ; reset extruder
 G1 Z1.0 F3000 ; move z up little to prevent scratching of surface
G92 E0
G92 E0
G1 F1500 E-2
;LAYER_COUNT:68
;LAYER:0
M107
G0 F6000 X135.179 Y137.057 Z0.2
;TYPE:SKIRT
G1 F1500 E0
G1 F1200 X135.872 Y136.392 E0.03514
G1 X136.618 Y135.787 E0.07028
G1 X137.412 Y135.246 E0.10543
G1 X138.248 Y134.773 E0.14057
G1 X139.12 Y134.371 E0.1757
G1 X140.023 Y134.043 E0.21085
G1 X140.95 Y133.791 E0.246
G1 X141.895 Y133.617 E0.28115
G1 X143.184 Y133.509 E0.32848
G1 X143.504 Y133.5 E0.34019
G1 X143.828 Y133.495 E0.35205
G1 X155.791 Y133.495 E0.78973
G1 X156.654 Y133.506 E0.8213
G1 X157.613 Y133.56 E0.85644
G1 X158.565 Y133.693 E0.89161
G1 X159.502 Y133.905 E0.92676
G1 X160.418 Y134.194 E0.9619
G1 X161.307 Y134.559 E0.99706
G1 X162.162 Y134.996 E1.03219
G1 X162.978 Y135.502 E1.06732
G1 X163.749 Y136.075 E1.10247
G1 X164.47 Y136.71 E1.13762
G1 X165.136 Y137.403 E1.17278
G1 X165.742 Y138.148 E1.20792
G1 X166.283 Y138.942 E1.24307
G1 X166.757 Y139.778 E1.27823
G1 X167.159 Y140.65 E1.31336
G1 X167.488 Y141.553 E1.34852
G1 X167.74 Y142.479 E1.38363
G1 X167.915 Y143.424 E1.41879
G1 X168.024 Y144.721 E1.46641
G1 X168.033 Y145.041 E1.47812
G1 X168.038 Y145.364 E1.48994
G1 X168.039 Y155.054 E1.84446
G1 X168.035 Y156.106 E1.88295
G1 X168.04 Y156.769 E1.90721
G1 X168.039 Y165.923 E2.24212
G1 X168.029 Y166.65 E2.26872
G1 X167.976 Y167.609 E2.30386
G1 X167.843 Y168.56 E2.33899
G1 X167.632 Y169.497 E2.37413
G1 X167.343 Y170.414 E2.40931
G1 X166.979 Y171.303 E2.44445
G1 X166.543 Y172.158 E2.47957
G1 X166.036 Y172.975 E2.51474
G1 X165.464 Y173.746 E2.54987
G1 X164.829 Y174.468 E2.58505
G1 X164.137 Y175.133 E2.62016
G1 X163.392 Y175.74 E2.65532
G1 X162.599 Y176.282 E2.69046
G1 X161.763 Y176.756 E2.72562
G1 X160.891 Y177.159 E2.76077
G1 X159.989 Y177.488 E2.79589
G1 X159.062 Y177.741 E2.83105
G1 X158.117 Y177.916 E2.86621
G1 X156.814 Y178.026 E2.91405
G1 X156.494 Y178.035 E2.92576
G1 X156.17 Y178.04 E2.93762
G1 X144.058 Y178.039 E3.38075
G1 X143.36 Y178.03 E3.40629
G1 X142.401 Y177.978 E3.44143
G1 X141.449 Y177.846 E3.47659
G1 X140.512 Y177.635 E3.51173
G1 X139.596 Y177.347 E3.54686
G1 X138.706 Y176.984 E3.58203
G1 X137.85 Y176.548 E3.61717
G1 X137.033 Y176.043 E3.65231
G1 X136.261 Y175.471 E3.68747
G1 X135.54 Y174.837 E3.72259
G1 X134.873 Y174.146 E3.75773
G1 X134.266 Y173.401 E3.79289
G1 X133.724 Y172.608 E3.82803
G1 X133.249 Y171.773 E3.86318
G1 X132.845 Y170.901 E3.89834
G1 X132.515 Y169.999 E3.93348
G1 X132.261 Y169.073 E3.96861
G1 X132.086 Y168.128 E4.00377
G1 X131.973 Y166.803 E4.05242
G1 X131.964 Y166.47 E4.06461
G1 X131.96 Y166.159 E4.07599
G1 X131.959 Y156.481 E4.43007
G1 X131.963 Y155.429 E4.46856
G1 X131.958 Y154.766 E4.49281
G1 X131.959 Y145.535 E4.83054
G1 X131.969 Y144.87 E4.85487
G1 X132.024 Y143.911 E4.89002
G1 X132.158 Y142.96 E4.92516
G1 X132.37 Y142.023 E4.9603
G1 X132.66 Y141.108 E4.99542
G1 X133.025 Y140.219 E5.03058
G1 X133.463 Y139.364 E5.06573
G1 X133.97 Y138.548 E5.10087
G1 X134.543 Y137.777 E5.13602
G1 X135.179 Y137.057 E5.17117
G0 F6000 X135.61 Y137.244
G1 F1200 X136.3 Y136.603 E5.20562
G1 X137.042 Y136.022 E5.2401
G1 X137.83 Y135.506 E5.27456
G1 X138.66 Y135.059 E5.30905
G1 X139.524 Y134.684 E5.34351
G1 X140.417 Y134.383 E5.37799
G1 X141.332 Y134.159 E5.41246
G1 X142.263 Y134.014 E5.44693
G1 X143.196 Y133.948 E5.48115
G1 X143.516 Y133.939 E5.49286
G1 X143.828 Y133.935 E5.50428
G1 X155.791 Y133.935 E5.94196
G1 X156.648 Y133.946 E5.97331
G1 X157.589 Y134 E6.0078
G1 X158.521 Y134.133 E6.04224
G1 X159.439 Y134.344 E6.0767
G1 X160.336 Y134.633 E6.11118
G1 X161.205 Y134.997 E6.14565
G1 X162.04 Y135.433 E6.18012
G1 X162.835 Y135.938 E6.21457
G1 X163.585 Y136.509 E6.24906
G1 X164.283 Y137.142 E6.28353
G1 X164.925 Y137.831 E6.31799
G1 X165.507 Y138.572 E6.35246
G1 X166.023 Y139.36 E6.38692
G1 X166.471 Y140.189 E6.4214
G1 X166.846 Y141.053 E6.45586
G1 X167.148 Y141.946 E6.49035
G1 X167.372 Y142.861 E6.52481
G1 X167.518 Y143.792 E6.55929
G1 X167.585 Y144.733 E6.5938
G1 X167.594 Y145.053 E6.60552
G1 X167.598 Y145.364 E6.6169
G1 X167.599 Y155.053 E6.97138
G1 X167.595 Y156.109 E7.01001
G1 X167.6 Y156.772 E7.03427
G1 X167.599 Y165.917 E7.36885
G1 X167.589 Y166.644 E7.39545
G1 X167.536 Y167.584 E7.4299
G1 X167.404 Y168.517 E7.46437
G1 X167.192 Y169.435 E7.49884
G1 X166.904 Y170.332 E7.53331
G1 X166.541 Y171.201 E7.56777
G1 X166.105 Y172.037 E7.60226
G1 X165.6 Y172.832 E7.63672
G1 X165.03 Y173.582 E7.67119
G1 X164.398 Y174.281 E7.70566
G1 X163.709 Y174.923 E7.74012
G1 X162.968 Y175.505 E7.77459
G1 X162.18 Y176.022 E7.80907
G1 X161.351 Y176.47 E7.84355
G1 X160.488 Y176.846 E7.87799
G1 X159.595 Y177.148 E7.91248
G1 X158.68 Y177.373 E7.94695
G1 X157.75 Y177.519 E7.98139
G1 X156.802 Y177.587 E8.01616
G1 X156.482 Y177.596 E8.02788
G1 X156.17 Y177.6 E8.03929
G1 X144.064 Y177.599 E8.4822
G1 X143.366 Y177.59 E8.50774
G1 X142.425 Y177.538 E8.54222
G1 X141.492 Y177.406 E8.5767
G1 X140.574 Y177.196 E8.61115
G1 X139.677 Y176.908 E8.64562
G1 X138.807 Y176.546 E8.6801
G1 X137.971 Y176.111 E8.71457
G1 X137.176 Y175.607 E8.74901
G1 X136.425 Y175.037 E8.78351
G1 X135.726 Y174.405 E8.81798
G1 X135.083 Y173.717 E8.85244
G1 X134.501 Y172.976 E8.88691
G1 X133.983 Y172.189 E8.92138
G1 X133.534 Y171.361 E8.95584
G1 X133.157 Y170.497 E8.99033
G1 X132.855 Y169.605 E9.02478
G1 X132.629 Y168.691 E9.05923
G1 X132.482 Y167.76 E9.09371
G1 X132.413 Y166.791 E9.12926
G1 X132.404 Y166.458 E9.14144
G1 X132.4 Y166.159 E9.15238
G1 X132.399 Y156.482 E9.50643
G1 X132.403 Y155.426 E9.54506
G1 X132.398 Y154.763 E9.56932
G1 X132.399 Y145.542 E9.90668
G1 X132.409 Y144.877 E9.93101
G1 X132.463 Y143.937 E9.96546
G1 X132.597 Y143.004 E9.99995
G1 X132.809 Y142.086 E10.03442
G1 X133.099 Y141.189 E10.06891
G1 X133.463 Y140.321 E10.10334
G1 X133.9 Y139.486 E10.13782
G1 X134.406 Y138.691 E10.1723
G1 X134.977 Y137.942 E10.20676
G1 X135.61 Y137.244 E10.24123
G0 F6000 X136.041 Y137.436
G1 F1200 X136.727 Y136.818 E10.27501
G1 X137.465 Y136.263 E10.3088
G1 X138.247 Y135.773 E10.34256
G1 X139.069 Y135.352 E10.37635
G1 X139.924 Y135.004 E10.41012
G1 X140.807 Y134.732 E10.44393
G1 X141.709 Y134.537 E10.47769
G1 X142.625 Y134.421 E10.51147
G1 X143.208 Y134.388 E10.53283
G1 X143.528 Y134.379 E10.54455
G1 X143.828 Y134.375 E10.55552
G1 X155.791 Y134.375 E10.9932
G1 X156.642 Y134.386 E11.02434
G1 X157.563 Y134.439 E11.05809
G1 X158.477 Y134.572 E11.09188
G1 X159.376 Y134.783 E11.12567
G1 X160.253 Y135.072 E11.15945
G1 X161.102 Y135.435 E11.19323
G1 X161.916 Y135.87 E11.227
G1 X162.69 Y136.374 E11.26079
G1 X163.417 Y136.943 E11.29457
G1 X164.092 Y137.573 E11.32835
G1 X164.71 Y138.259 E11.36213
G1 X165.266 Y138.995 E11.39588
G1 X165.757 Y139.778 E11.42969
G1 X166.178 Y140.599 E11.46345
G1 X166.526 Y141.454 E11.49722
G1 X166.799 Y142.336 E11.531
G1 X166.995 Y143.238 E11.56477
G1 X167.112 Y144.154 E11.59856
G1 X167.145 Y144.745 E11.62021
G1 X167.154 Y145.065 E11.63192
G1 X167.158 Y145.364 E11.64286
G1 X167.159 Y155.051 E11.99727
G1 X167.155 Y156.113 E12.03613
G1 X167.16 Y156.776 E12.06039
G1 X167.159 Y165.911 E12.3946
G1 X167.149 Y166.638 E12.4212
G1 X167.096 Y167.559 E12.45495
G1 X166.964 Y168.473 E12.48874
G1 X166.753 Y169.372 E12.52252
G1 X166.466 Y170.249 E12.55628
G1 X166.103 Y171.098 E12.59007
G1 X165.668 Y171.913 E12.62387
G1 X165.165 Y172.687 E12.65764
G1 X164.596 Y173.414 E12.69141
G1 X163.967 Y174.089 E12.72517
G1 X163.281 Y174.708 E12.75897
G1 X162.545 Y175.265 E12.79274
G1 X161.763 Y175.756 E12.82653
G1 X160.941 Y176.177 E12.86032
G1 X160.086 Y176.526 E12.8941
G1 X159.205 Y176.8 E12.92786
G1 X158.303 Y176.996 E12.96163
G1 X157.387 Y177.113 E12.99541
G1 X156.79 Y177.147 E13.01729
G1 X156.47 Y177.156 E13.029
G1 X156.17 Y177.16 E13.03998
G1 X144.07 Y177.159 E13.48267
G1 X143.372 Y177.15 E13.50821
G1 X142.45 Y177.098 E13.542
G1 X141.536 Y176.967 E13.57578
G1 X140.637 Y176.757 E13.60956
G1 X139.759 Y176.47 E13.64335
G1 X138.91 Y176.108 E13.67712
G1 X138.095 Y175.674 E13.7109
G1 X137.321 Y175.171 E13.74467
G1 X136.593 Y174.603 E13.77845
G1 X135.917 Y173.974 E13.81224
G1 X135.298 Y173.289 E13.84602
G1 X134.741 Y172.553 E13.87978
G1 X134.249 Y171.772 E13.91356
G1 X133.827 Y170.951 E13.94733
G1 X133.477 Y170.096 E13.98113
G1 X133.203 Y169.215 E14.01488
G1 X133.006 Y168.313 E14.04866
G1 X132.888 Y167.397 E14.08245
G1 X132.853 Y166.779 E14.1051
G1 X132.844 Y166.446 E14.11729
G1 X132.84 Y166.159 E14.12779
G1 X132.839 Y156.484 E14.48176
G1 X132.843 Y155.422 E14.52061
G1 X132.838 Y154.759 E14.54487
G1 X132.839 Y145.549 E14.88183
G1 X132.849 Y144.884 E14.90616
G1 X132.903 Y143.962 E14.93995
G1 X133.036 Y143.048 E14.97374
G1 X133.248 Y142.15 E15.0075
G1 X133.537 Y141.273 E15.04128
G1 X133.901 Y140.424 E15.07508
G1 X134.337 Y139.61 E15.10887
G1 X134.841 Y138.837 E15.14263
G1 X135.411 Y138.111 E15.1764
G1 X136.041 Y137.436 E15.21018
G0 F6000 X135.844 Y138.283
G1 F1200 X136.472 Y137.632 E15.24327
G1 X137.154 Y137.039 E15.27634
G1 X137.886 Y136.509 E15.3094
G1 X138.662 Y136.046 E15.34246
G1 X139.476 Y135.653 E15.37553
G1 X140.322 Y135.333 E15.40862
G1 X141.193 Y135.09 E15.44171
G1 X142.081 Y134.924 E15.47476
G1 X143.221 Y134.828 E15.51661
G1 X143.541 Y134.819 E15.52833
G1 X143.828 Y134.815 E15.53883
G1 X155.791 Y134.815 E15.97651
G1 X156.635 Y134.826 E16.00739
G1 X157.538 Y134.879 E16.04048
G1 X158.432 Y135.011 E16.07354
G1 X159.311 Y135.222 E16.10662
G1 X160.168 Y135.51 E16.1397
G1 X160.996 Y135.873 E16.17277
G1 X161.789 Y136.307 E16.20585
G1 X162.541 Y136.809 E16.23893
G1 X163.245 Y137.376 E16.272
G1 X163.896 Y138.003 E16.30506
G1 X164.489 Y138.685 E16.33813
G1 X165.02 Y139.417 E16.37122
G1 X165.484 Y140.193 E16.40429
G1 X165.877 Y141.007 E16.43736
G1 X166.197 Y141.852 E16.47042
G1 X166.442 Y142.723 E16.50353
G1 X166.608 Y143.611 E16.53658
G1 X166.705 Y144.758 E16.57869
G1 X166.714 Y145.078 E16.5904
G1 X166.718 Y145.364 E16.60087
G1 X166.719 Y155.05 E16.95524
G1 X166.715 Y156.116 E16.99424
G1 X166.72 Y156.779 E17.0185
G1 X166.719 Y165.905 E17.35238
G1 X166.709 Y166.632 E17.37899
G1 X166.657 Y167.534 E17.41204
G1 X166.525 Y168.428 E17.4451
G1 X166.314 Y169.307 E17.47818
G1 X166.027 Y170.165 E17.51128
G1 X165.665 Y170.993 E17.54434
G1 X165.231 Y171.786 E17.57741
G1 X164.729 Y172.538 E17.61049
G1 X164.163 Y173.242 E17.64354
G1 X163.536 Y173.894 E17.67664
G1 X162.854 Y174.488 E17.70972
G1 X162.123 Y175.019 E17.74278
G1 X161.347 Y175.483 E17.77586
G1 X160.534 Y175.877 E17.80891
G1 X159.688 Y176.198 E17.84202
G1 X158.818 Y176.442 E17.87508
G1 X157.93 Y176.609 E17.90813
G1 X156.777 Y176.707 E17.95047
G1 X156.457 Y176.716 E17.96218
G1 X156.17 Y176.72 E17.97268
G1 X144.075 Y176.719 E18.41519
G1 X143.377 Y176.71 E18.44073
G1 X142.475 Y176.659 E18.47379
G1 X141.58 Y176.527 E18.50688
G1 X140.701 Y176.318 E18.53994
G1 X139.844 Y176.031 E18.57301
G1 X139.015 Y175.67 E18.60609
G1 X138.221 Y175.237 E18.63918
G1 X137.469 Y174.735 E18.67225
G1 X136.764 Y174.169 E18.70533
G1 X136.112 Y173.543 E18.7384
G1 X135.518 Y172.862 E18.77146
G1 X134.986 Y172.131 E18.80454
G1 X134.521 Y171.356 E18.83761
G1 X134.126 Y170.543 E18.87068
G1 X133.805 Y169.698 E18.90375
G1 X133.56 Y168.828 E18.93681
G1 X133.392 Y167.939 E18.96992
G1 X133.293 Y166.767 E19.01295
G1 X133.284 Y166.434 E19.02513
G1 X133.28 Y166.159 E19.0352
G1 X133.279 Y156.485 E19.38913
G1 X133.283 Y155.419 E19.42813
G1 X133.278 Y154.756 E19.45239
G1 X133.279 Y145.555 E19.78902
G1 X133.289 Y144.89 E19.81335
G1 X133.343 Y143.988 E19.84641
G1 X133.476 Y143.094 E19.87948
G1 X133.687 Y142.215 E19.91255
G1 X133.976 Y141.358 E19.94564
G1 X134.339 Y140.53 E19.97872
G1 X134.774 Y139.738 E20.01178
G1 X135.277 Y138.987 E20.04485
G1 X135.844 Y138.283 E20.07792
G1 F1500 E18.07792
;MESH:winkel_platinenmontage.stl
G0 F6000 X153.998 Y150.764
G0 X153.998 Y152.545
;TYPE:WALL-INNER
G1 F1500 E20.07792
G1 F1200 X154.649 Y152.459 E20.10194
G1 X155.253 Y152.207 E20.12589
G1 X155.398 Y152.096 E20.13257
G1 X155.398 Y153.935 E20.19985
G1 X144.598 Y153.935 E20.59498
G1 X144.598 Y146.135 E20.88035
G1 X155.398 Y146.135 E21.27548
G1 X155.398 Y147.973 E21.34273
G1 X155.253 Y147.862 E21.34941
G1 X154.648 Y147.61 E21.37339
G1 X153.998 Y147.525 E21.39737
G1 X153.349 Y147.61 E21.42132
G1 X152.743 Y147.862 E21.44533
G1 X152.223 Y148.26 E21.46929
G1 X151.826 Y148.78 E21.49322
G1 X151.574 Y149.384 E21.51717
G1 X151.488 Y150.035 E21.54119
G1 X151.574 Y150.685 E21.56518
G1 X151.826 Y151.29 E21.58916
G1 X152.223 Y151.81 E21.61309
G1 X152.743 Y152.207 E21.63703
G1 X153.348 Y152.459 E21.66101
G1 X153.998 Y152.545 E21.68499
G0 F6000 X153.998 Y152.101
G1 F1200 X154.534 Y152.03 E21.70478
G1 X155.031 Y151.823 E21.72447
G1 X155.459 Y151.496 E21.74418
G1 X155.787 Y151.068 E21.76391
G1 X155.838 Y150.945 E21.76878
G1 X155.838 Y151.496 E21.77931
G1 X155.838 Y154.375 E21.88464
G1 X144.158 Y154.375 E22.31196
G1 X144.158 Y145.695 E22.62953
G1 X155.838 Y145.695 E23.05686
G1 X155.838 Y148.574 E23.16219
G1 X155.838 Y149.125 E23.18235
G1 X155.787 Y149.002
G1 X155.459 Y148.574 E23.1942
G1 X155.031 Y148.246 E23.21393
G1 X154.533 Y148.039 E23.23366
G1 X153.998 Y147.969 E23.2534
G1 X153.464 Y148.039 E23.27311
G1 X152.965 Y148.246 E23.29287
G1 X152.537 Y148.574 E23.3126
G1 X152.21 Y149.002 E23.33231
G1 X152.003 Y149.499 E23.352
G1 X151.932 Y150.035 E23.37179
G1 X152.003 Y150.57 E23.39153
G1 X152.21 Y151.068 E23.41126
G1 X152.537 Y151.496 E23.43097
G1 X152.965 Y151.823 E23.45067
G1 X153.463 Y152.03 E23.47041
G1 X153.998 Y152.101 E23.49015
G0 F6000 X153.998 Y151.657
;TYPE:WALL-OUTER
G1 F1200 X154.419 Y151.601 E23.50569
G1 X154.809 Y151.439 E23.52114
G1 X155.145 Y151.182 E23.53662
G1 X155.403 Y150.846 E23.55212
G1 X155.565 Y150.454 E23.56763
G1 X155.62 Y150.035 E23.58309
G1 X155.565 Y149.615 E23.59859
G1 X155.403 Y149.224 E23.61408
G1 X155.145 Y148.888 E23.62958
G1 X154.809 Y148.63 E23.64507
G1 X154.418 Y148.468 E23.66056
G1 X153.998 Y148.413 E23.67606
G1 X153.579 Y148.468 E23.69152
G1 X153.187 Y148.63 E23.70704
G1 X152.851 Y148.888 E23.72253
G1 X152.594 Y149.224 E23.73801
G1 X152.432 Y149.614 E23.75346
G1 X152.376 Y150.035 E23.769
G1 X152.432 Y150.455 E23.7845
G1 X152.594 Y150.846 E23.79999
G1 X152.851 Y151.182 E23.81546
G1 X153.187 Y151.439 E23.83094
G1 X153.578 Y151.601 E23.84642
G1 X153.998 Y151.657 E23.86193
G0 F6000 X153.998 Y152.141
G1 F1500 E21.86193
G0 F6000 X153.998 Y150.764
G0 X157.163 Y154.815
G0 X156.278 Y154.815
G1 F1500 E23.86193
G1 F1200 X143.718 Y154.815 E24.32145
G1 X143.718 Y145.255 E24.67121
G1 X156.278 Y145.255 E25.13073
G1 X156.278 Y154.815 E25.4805
G0 F6000 X154.968 Y153.505
;TYPE:SKIN
G1 F1200 X145.028 Y153.505 E25.84416
G1 X145.028 Y146.565 E26.09807
G1 X154.968 Y146.565 E26.46174
G1 X154.968 Y147.277 E26.48779
G1 X154.761 Y147.191 E26.49599
G1 X153.998 Y147.091 E26.52414
G1 X153.236 Y147.191 E26.55226
G1 X152.526 Y147.487 E26.5804
G1 X151.916 Y147.953 E26.60849
G1 X151.451 Y148.563 E26.63655
G1 X151.155 Y149.271 E26.66463
G1 X151.054 Y150.035 E26.69282
G1 X151.155 Y150.798 E26.72098
G1 X151.451 Y151.507 E26.74909
G1 X151.916 Y152.117 E26.77715
G1 X152.526 Y152.582 E26.80521
G1 X153.235 Y152.878 E26.83332
G1 X153.998 Y152.979 E26.86148
G1 X154.762 Y152.878 E26.88968
G1 X154.968 Y152.792 E26.89784
G1 X154.968 Y153.505 E26.92393
G1 F1500 E24.92393
G0 F6000 X157.163 Y153.505
G0 X154.189 Y149.329
G0 X154.437 Y146.97
G1 F1500 E26.92393
G1 F1200 X154.208 Y146.741 E26.93578
G0 F6000 X153.785 Y146.941
G1 F1200 X153.586 Y146.741 E26.9461
G0 F6000 X153.236 Y147.013
G1 F1200 X152.964 Y146.741 E26.96017
G0 F6000 X152.787 Y147.187
G1 F1200 X152.341 Y146.741 E26.98325
G0 F6000 X151.719 Y146.741
