;FLAVOR:Marlin
;TIME:5949
;Filament used: 5.90014m
;Layer height: 0.2
;MINX:121.615
;MINY:77.61
;MINZ:0.2
;MAXX:178.385
;MAXY:222.39
;MAXZ:3
;Generated with Cura_SteamEngine 5.3.1
M140 S80
M105
M190 S80
M104 S215
M105
M109 S215
M82 ;absolute extrusion mode
G28 ; home all axes
 M420 S1 Z2 ; Load auto leveling
 M117 Purge extruder
 G92 E0 ; reset extruder
 G1 Z1.0 F3000 ; move z up little to prevent scratching of surface
 G1 X2 Y20 Z0.3 F5000.0 ; move to start-line position
 G1 X2 Y200.0 Z0.3 F1500.0 E15 ; draw 1st line
 G1 X2 Y200.0 Z0.4 F5000.0 ; move to side a little
 G1 X2 Y20 Z0.4 F1500.0 E30 ; draw 2nd line
 G92 E0 ; reset extruder
 G1 Z1.0 F3000 ; move z up little to prevent scratching of surface
G92 E0
G92 E0
G1 F1500 E-2
;LAYER_COUNT:15
;LAYER:0
M107
G0 F6000 X122.405 Y82.107 Z0.2
;TYPE:SKIRT
G1 F1500 E0
G1 F1200 X123.476 Y80.544 E0.06932
G1 X124.65 Y79.351 E0.13056
G1 X126.409 Y78.295 E0.20562
G1 X128.497 Y77.61 E0.28602
G1 X171.123 Y77.61 E1.84554
G1 X172.641 Y77.964 E1.90257
G1 X173.888 Y78.4 E1.9509
G1 X175.451 Y79.471 E2.02022
G1 X176.644 Y80.645 E2.08146
G1 X177.7 Y82.404 E2.15652
G1 X178.385 Y84.492 E2.23691
G1 X178.385 Y215.106 E7.01558
G1 X177.926 Y217.043 E7.08841
G1 X176.89 Y219.114 E7.17313
G1 X175.049 Y220.903 E7.26705
G1 X172.955 Y222.013 E7.35376
G1 X170.992 Y222.39 E7.42689
G1 X128.877 Y222.39 E8.96771
G1 X127.359 Y222.036 E9.02474
G1 X126.112 Y221.6 E9.07307
G1 X124.549 Y220.529 E9.14239
G1 X123.356 Y219.355 E9.20363
G1 X122.3 Y217.596 E9.27869
G1 X121.615 Y215.508 E9.35909
G1 X121.615 Y84.872 E14.13856
G1 X121.969 Y83.354 E14.19559
G1 X122.405 Y82.107 E14.24392
G0 F6000 X122.801 Y82.308
G1 F1200 X123.818 Y80.823 E14.30977
G1 X124.924 Y79.7 E14.36743
G1 X126.594 Y78.697 E14.43871
G1 X128.567 Y78.05 E14.51467
G1 X171.07 Y78.05 E16.06969
G1 X172.541 Y78.393 E16.12496
G1 X173.687 Y78.796 E16.1694
G1 X175.172 Y79.813 E16.23525
G1 X176.295 Y80.919 E16.29292
G1 X177.298 Y82.589 E16.36419
G1 X177.945 Y84.562 E16.44016
G1 X177.945 Y215.056 E21.21443
G1 X177.511 Y216.889 E21.28335
G1 X176.53 Y218.85 E21.36357
G1 X174.786 Y220.544 E21.45252
G1 X172.806 Y221.594 E21.53452
G1 X170.951 Y221.95 E21.60362
G1 X128.93 Y221.95 E23.14101
G1 X127.459 Y221.607 E23.19627
G1 X126.313 Y221.204 E23.24071
G1 X124.828 Y220.187 E23.30656
G1 X123.705 Y219.081 E23.36423
G1 X122.702 Y217.411 E23.4355
G1 X122.055 Y215.438 E23.51147
G1 X122.055 Y84.925 E28.28644
G1 X122.398 Y83.454 E28.3417
G1 X122.801 Y82.308 E28.38614
G0 F6000 X123.197 Y82.509
G1 F1200 X124.158 Y81.106 E28.44836
G1 X125.201 Y80.046 E28.50277
G1 X126.777 Y79.1 E28.57002
G1 X128.637 Y78.49 E28.64163
G1 X171.017 Y78.49 E30.19216
G1 X172.441 Y78.822 E30.24565
G1 X173.486 Y79.192 E30.28621
G1 X174.889 Y80.153 E30.34843
G1 X175.949 Y81.196 E30.40283
G1 X176.895 Y82.772 E30.47008
G1 X177.505 Y84.632 E30.5417
G1 X177.505 Y215.006 E35.31158
G1 X177.096 Y216.735 E35.37659
G1 X176.169 Y218.588 E35.45239
G1 X174.525 Y220.184 E35.53622
G1 X172.657 Y221.175 E35.61358
G1 X170.91 Y221.51 E35.67866
G1 X128.983 Y221.51 E37.21261
G1 X127.559 Y221.178 E37.26611
G1 X126.514 Y220.808 E37.30667
G1 X125.111 Y219.847 E37.36888
G1 X124.051 Y218.804 E37.42329
G1 X123.105 Y217.228 E37.49054
G1 X122.495 Y215.368 E37.56216
G1 X122.495 Y84.978 E42.33262
G1 X122.827 Y83.554 E42.38612
G1 X123.197 Y82.509 E42.42668
G0 F6000 X123.592 Y82.712
G1 F1200 X124.498 Y81.389 E42.48534
G1 X125.479 Y80.392 E42.53652
G1 X126.96 Y79.503 E42.59971
G1 X128.707 Y78.93 E42.66698
G1 X170.964 Y78.93 E44.213
G1 X172.341 Y79.251 E44.26473
G1 X173.283 Y79.587 E44.30132
G1 X174.606 Y80.493 E44.35999
G1 X175.603 Y81.474 E44.41116
G1 X176.492 Y82.955 E44.47436
G1 X177.065 Y84.702 E44.54162
G1 X177.065 Y214.956 E49.30711
G1 X176.681 Y216.581 E49.3682
G1 X175.808 Y218.326 E49.43959
G1 X174.264 Y219.824 E49.5183
G1 X172.508 Y220.756 E49.59103
G1 X170.869 Y221.07 E49.65209
G1 X129.036 Y221.07 E51.18259
G1 X127.659 Y220.749 E51.23432
G1 X126.717 Y220.413 E51.27092
G1 X125.394 Y219.507 E51.32958
G1 X124.397 Y218.526 E51.38075
G1 X123.508 Y217.045 E51.44395
G1 X122.935 Y215.298 E51.51122
G1 X122.935 Y85.031 E56.27718
G1 X123.256 Y83.654 E56.32891
G1 X123.592 Y82.712 E56.36551
G0 F6000 X123.987 Y82.914
G1 F1200 X124.838 Y81.672 E56.42059
G1 X125.757 Y80.738 E56.46853
G1 X127.143 Y79.906 E56.52767
G1 X128.777 Y79.37 E56.59059
G1 X170.911 Y79.37 E58.13211
G1 X172.241 Y79.68 E58.18207
G1 X173.081 Y79.982 E58.21473
G1 X174.323 Y80.833 E58.26981
G1 X175.257 Y81.752 E58.31775
G1 X176.089 Y83.138 E58.3769
G1 X176.625 Y84.772 E58.43981
G1 X176.625 Y214.906 E63.20091
G1 X176.265 Y216.431 E63.25824
G1 X175.449 Y218.062 E63.32496
G1 X174.003 Y219.464 E63.39865
G1 X172.359 Y220.337 E63.46675
G1 X170.828 Y220.63 E63.52378
G1 X129.089 Y220.63 E65.05085
G1 X127.759 Y220.32 E65.10082
G1 X126.919 Y220.018 E65.13347
G1 X125.677 Y219.167 E65.18856
G1 X124.743 Y218.248 E65.2365
G1 X123.911 Y216.862 E65.29564
G1 X123.375 Y215.228 E65.35856
G1 X123.375 Y85.084 E70.12002
G1 X123.685 Y83.754 E70.16999
G1 X123.987 Y82.914 E70.20265
G0 F6000 X124.382 Y83.116
G1 F1200 X125.18 Y81.951 E70.25431
G1 X126.031 Y81.087 E70.29868
G1 X127.328 Y80.308 E70.35403
G1 X128.847 Y79.81 E70.41252
G1 X170.858 Y79.81 E71.94954
G1 X172.141 Y80.109 E71.99774
G1 X172.879 Y80.377 E72.02646
G1 X174.044 Y81.175 E72.07812
G1 X174.908 Y82.026 E72.12249
G1 X175.687 Y83.323 E72.17785
G1 X176.185 Y84.842 E72.23633
G1 X176.185 Y214.856 E76.99304
G1 X175.849 Y216.281 E77.04661
G1 X175.09 Y217.798 E77.10867
G1 X173.742 Y219.104 E77.17734
G1 X172.21 Y219.918 E77.24081
G1 X170.787 Y220.19 E77.29381
G1 X129.142 Y220.19 E78.81744
G1 X127.859 Y219.891 E78.86564
G1 X127.121 Y219.623 E78.89437
G1 X125.956 Y218.825 E78.94603
G1 X125.092 Y217.974 E78.9904
G1 X124.313 Y216.677 E79.04575
G1 X123.815 Y215.158 E79.10424
G1 X123.815 Y85.137 E83.8612
G1 X124.114 Y83.854 E83.9094
G1 X124.382 Y83.116 E83.93813
G0 F6000 X124.777 Y83.318
G1 F1200 X125.52 Y82.234 E83.98621
G1 X126.308 Y81.433 E84.02732
G1 X127.511 Y80.711 E84.07865
G1 X128.917 Y80.25 E84.13278
G1 X170.806 Y80.25 E85.66534
G1 X171.991 Y80.523 E85.70983
G1 X172.677 Y80.772 E85.73653
G1 X173.761 Y81.515 E85.78461
G1 X174.562 Y82.303 E85.82572
G1 X175.284 Y83.506 E85.87705
G1 X175.745 Y84.912 E85.93119
G1 X175.745 Y214.806 E90.68351
G1 X175.433 Y216.131 E90.73331
G1 X174.731 Y217.534 E90.79071
G1 X173.48 Y218.745 E90.85441
G1 X172.062 Y219.499 E90.91317
G1 X170.747 Y219.75 E90.96215
G1 X129.194 Y219.75 E92.48241
G1 X128.009 Y219.477 E92.5269
G1 X127.323 Y219.228 E92.5536
G1 X126.239 Y218.485 E92.60168
G1 X125.438 Y217.697 E92.64279
G1 X124.716 Y216.494 E92.69412
G1 X124.255 Y215.088 E92.74826
G1 X124.255 Y85.189 E97.50076
G1 X124.528 Y84.004 E97.54525
G1 X124.777 Y83.318 E97.57195
G0 F6000 X125.171 Y83.521
G1 F1200 X125.86 Y82.517 E97.6165
G1 X126.586 Y81.779 E97.65438
G1 X127.694 Y81.114 E97.70166
G1 X128.987 Y80.69 E97.75144
G1 X170.755 Y80.69 E99.27957
G1 X171.892 Y80.952 E99.32226
G1 X172.474 Y81.166 E99.34495
G1 X173.478 Y81.855 E99.3895
G1 X174.216 Y82.581 E99.42737
G1 X174.881 Y83.689 E99.47465
G1 X175.305 Y84.982 E99.52444
G1 X175.305 Y214.756 E104.27237
G1 X175.017 Y215.981 E104.31841
G1 X174.372 Y217.27 E104.37114
G1 X173.218 Y218.386 E104.42987
G1 X171.915 Y219.079 E104.48387
G1 X170.706 Y219.31 E104.5289
G1 X129.245 Y219.31 E106.0458
G1 X128.108 Y219.048 E106.08849
G1 X127.526 Y218.834 E106.11118
G1 X126.522 Y218.145 E106.15573
G1 X125.784 Y217.419 E106.1936
G1 X125.119 Y216.311 E106.24088
G1 X124.695 Y215.018 E106.29066
G1 X124.695 Y85.24 E111.03874
G1 X124.957 Y84.103 E111.08143
G1 X125.171 Y83.521 E111.10412
G0 F6000 X125.564 Y83.726
G1 F1200 X126.2 Y82.8 E111.14522
G1 X126.864 Y82.125 E111.17986
G1 X127.877 Y81.517 E111.22308
G1 X129.057 Y81.13 E111.26852
G1 X170.704 Y81.13 E112.79222
G1 X171.793 Y81.381 E112.83311
G1 X172.269 Y81.559 E112.8517
G1 X173.195 Y82.195 E112.8928
G1 X173.87 Y82.859 E112.92744
G1 X174.478 Y83.872 E112.97067
G1 X174.865 Y85.052 E113.0161
G1 X174.865 Y214.706 E117.75964
G1 X174.601 Y215.827 E117.80178
G1 X174.011 Y217.007 E117.85004
G1 X172.956 Y218.027 E117.90373
G1 X171.767 Y218.66 E117.95301
G1 X170.666 Y218.87 E117.99402
G1 X129.296 Y218.87 E119.50759
G1 X128.207 Y218.619 E119.54848
G1 X127.731 Y218.441 E119.56707
G1 X126.805 Y217.805 E119.60817
G1 X126.13 Y217.141 E119.64281
G1 X125.522 Y216.128 E119.68604
G1 X125.135 Y214.948 E119.73147
G1 X125.135 Y85.291 E124.47512
G1 X125.386 Y84.202 E124.51601
G1 X125.564 Y83.726 E124.5346
G0 F6000 X125.958 Y83.93
G1 F1200 X126.54 Y83.083 E124.5722
G1 X127.142 Y82.471 E124.60361
G1 X128.06 Y81.92 E124.64278
G1 X129.127 Y81.57 E124.68386
G1 X170.653 Y81.57 E126.20314
G1 X171.694 Y81.81 E126.24222
G1 X172.065 Y81.953 E126.25677
G1 X172.912 Y82.535 E126.29437
G1 X173.524 Y83.137 E126.32578
G1 X174.075 Y84.055 E126.36495
G1 X174.425 Y85.122 E126.40603
G1 X174.425 Y214.656 E131.14518
G1 X174.185 Y215.677 E131.18356
G1 X173.652 Y216.742 E131.22713
G1 X172.694 Y217.668 E131.27587
G1 X171.62 Y218.24 E131.32039
G1 X170.625 Y218.43 E131.35745
G1 X129.347 Y218.43 E132.86766
G1 X128.306 Y218.19 E132.90674
G1 X127.935 Y218.047 E132.92129
G1 X127.088 Y217.465 E132.95889
G1 X126.476 Y216.863 E132.9903
G1 X125.925 Y215.945 E133.02947
G1 X125.575 Y214.878 E133.07055
G1 X125.575 Y85.342 E137.80977
G1 X125.815 Y84.301 E137.84886
G1 X125.958 Y83.93 E137.86341
G0 F6000 X126.349 Y84.139
G1 F1200 X126.88 Y83.366 E137.89772
G1 X127.42 Y82.817 E137.92589
G1 X128.243 Y82.323 E137.96101
G1 X129.197 Y82.01 E137.99774
G1 X170.602 Y82.01 E139.51259
G1 X171.595 Y82.239 E139.54988
G1 X171.856 Y82.344 E139.56017
G1 X172.629 Y82.875 E139.59448
G1 X173.178 Y83.415 E139.62265
G1 X173.672 Y84.238 E139.65777
G1 X173.985 Y85.192 E139.69451
G1 X173.985 Y214.606 E144.42927
G1 X173.769 Y215.523 E144.46373
G1 X173.291 Y216.479 E144.50284
G1 X172.432 Y217.309 E144.54654
G1 X171.472 Y217.821 E144.58634
G1 X170.585 Y217.99 E144.61938
G1 X129.398 Y217.99 E146.12625
G1 X128.405 Y217.761 E146.16354
G1 X128.144 Y217.656 E146.17383
G1 X127.371 Y217.125 E146.20814
G1 X126.822 Y216.585 E146.23632
G1 X126.328 Y215.762 E146.27143
G1 X126.015 Y214.808 E146.30817
G1 X126.015 Y85.393 E151.04296
G1 X126.244 Y84.4 E151.08025
G1 X126.349 Y84.139 E151.09054
G0 F6000 X126.739 Y84.349
G1 F1200 X127.22 Y83.649 E151.12161
G1 X127.698 Y83.163 E151.14655
G1 X128.426 Y82.726 E151.17762
G1 X129.267 Y82.45 E151.21
G1 X170.551 Y82.45 E152.72042
G1 X171.496 Y82.668 E152.75591
G1 X171.646 Y82.734 E152.7619
G1 X172.346 Y83.215 E152.79298
G1 X172.832 Y83.693 E152.81792
G1 X173.269 Y84.421 E152.84898
G1 X173.545 Y85.262 E152.88136
G1 X173.545 Y214.556 E157.61173
G1 X173.353 Y215.373 E157.64244
G1 X172.932 Y216.214 E157.67685
G1 X172.17 Y216.95 E157.71561
G1 X171.324 Y217.401 E157.75068
G1 X170.544 Y217.55 E157.77974
G1 X129.449 Y217.55 E159.28324
G1 X128.504 Y217.332 E159.31873
G1 X128.354 Y217.266 E159.32472
G1 X127.654 Y216.785 E159.35579
G1 X127.168 Y216.307 E159.38073
G1 X126.731 Y215.579 E159.4118
G1 X126.455 Y214.738 E159.44418
G1 X126.455 Y85.444 E164.17455
G1 X126.673 Y84.499 E164.21003
G1 X126.739 Y84.349 E164.21603
G0 F6000 X127.102 Y84.598
G1 F1200 X127.56 Y83.932 E164.2456
G1 X127.976 Y83.509 E164.26731
G1 X128.609 Y83.129 E164.29432
G1 X129.337 Y82.89 E164.32235
G1 X170.5 Y82.89 E165.82835
G1 X171.397 Y83.097 E165.86203
G1 X172.063 Y83.555 E165.8916
G1 X172.486 Y83.971 E165.91331
G1 X172.866 Y84.604 E165.94032
G1 X173.105 Y85.332 E165.96835
G1 X173.105 Y214.506 E170.69433
G1 X172.937 Y215.219 E170.72113
G1 X172.572 Y215.949 E170.75099
G1 X171.906 Y216.592 E170.78486
G1 X171.176 Y216.982 E170.81514
G1 X170.504 Y217.11 E170.84017
G1 X129.5 Y217.11 E172.34035
G1 X128.603 Y216.903 E172.37403
G1 X127.937 Y216.445 E172.4036
G1 X127.514 Y216.029 E172.42531
G1 X127.134 Y215.396 E172.45232
G1 X126.895 Y214.668 E172.48035
G1 X126.895 Y85.495 E177.20629
G1 X127.102 Y84.598 E177.23997
G0 F6000 X127.512 Y84.778
G1 F1200 X127.899 Y84.216 E177.26494
G1 X128.254 Y83.855 E177.28346
G1 X128.792 Y83.532 E177.30642
G1 X129.407 Y83.33 E177.3301
G1 X170.449 Y83.33 E178.83167
G1 X171.217 Y83.507 E178.86051
G1 X171.779 Y83.894 E178.88547
G1 X172.14 Y84.249 E178.904
G1 X172.463 Y84.787 E178.92695
G1 X172.665 Y85.402 E178.95064
G1 X172.665 Y214.456 E183.67223
G1 X172.521 Y215.069 E183.69526
G1 X172.214 Y215.682 E183.72035
G1 X171.643 Y216.233 E183.74938
G1 X171.026 Y216.563 E183.77498
G1 X170.464 Y216.67 E183.79591
G1 X129.551 Y216.67 E185.29276
G1 X128.783 Y216.493 E185.32159
G1 X128.221 Y216.106 E185.34656
G1 X127.86 Y215.751 E185.36508
G1 X127.537 Y215.213 E185.38804
G1 X127.335 Y214.598 E185.41172
G1 X127.335 Y85.546 E190.13324
G1 X127.512 Y84.778 E190.16207
G0 F6000 X127.922 Y84.958
G1 F1200 X128.24 Y84.497 E190.18256
G1 X128.528 Y84.204 E190.19759
G1 X128.977 Y83.934 E190.21676
G1 X129.477 Y83.77 E190.23601
G1 X170.398 Y83.77 E191.73316
G1 X171.037 Y83.917 E191.75714
G1 X171.498 Y84.235 E191.77763
G1 X171.791 Y84.523 E191.79267
G1 X172.061 Y84.972 E191.81183
G1 X172.225 Y85.472 E191.83109
G1 X172.225 Y214.406 E196.54828
G1 X172.105 Y214.915 E196.56742
G1 X171.853 Y215.419 E196.58803
G1 X171.382 Y215.873 E196.61197
G1 X170.876 Y216.144 E196.63297
G1 X170.424 Y216.23 E196.6498
G1 X129.602 Y216.23 E198.14332
G1 X128.963 Y216.083 E198.16731
G1 X128.502 Y215.765 E198.1878
G1 X128.209 Y215.477 E198.20283
G1 X127.939 Y215.028 E198.222
G1 X127.775 Y214.528 E198.24125
G1 X127.775 Y85.597 E202.95834
G1 X127.922 Y84.958 E202.98233
G0 F6000 X128.333 Y85.136
G1 F1200 X128.578 Y84.78 E202.99814
G1 X128.802 Y84.553 E203.00981
G1 X129.162 Y84.336 E203.02519
G1 X129.547 Y84.21 E203.04001
G1 X170.347 Y84.21 E204.53272
G1 X170.859 Y84.328 E204.55195
G1 X171.215 Y84.573 E204.56776
G1 X171.442 Y84.797 E204.57943
G1 X171.659 Y85.157 E204.5948
G1 X171.785 Y85.542 E204.60962
G1 X171.785 Y214.356 E209.32243
G1 X171.689 Y214.765 E209.3378
G1 X171.494 Y215.154 E209.35372
G1 X171.121 Y215.513 E209.37266
G1 X170.726 Y215.725 E209.38907
G1 X170.384 Y215.79 E209.4018
G1 X129.653 Y215.79 E210.89199
G1 X129.141 Y215.672 E210.91122
G1 X128.785 Y215.427 E210.92703
G1 X128.558 Y215.203 E210.93869
G1 X128.341 Y214.843 E210.95407
G1 X128.215 Y214.458 E210.96889
G1 X128.215 Y85.648 E215.68156
G1 X128.333 Y85.136 E215.70078
G0 F6000 X128.743 Y85.316
G1 F1200 X128.94 Y85.03 E215.71348
G1 X129.075 Y84.902 E215.72029
G1 X129.389 Y84.713 E215.7337
G1 X129.616 Y84.65 E215.74232
G1 X170.296 Y84.65 E217.23064
G1 X170.679 Y84.738 E217.24502
G1 X170.965 Y84.935 E217.25773
G1 X171.093 Y85.07 E217.26453
G1 X171.282 Y85.384 E217.27794
G1 X171.345 Y85.611 E217.28656
G1 X171.345 Y214.303 E221.9949
G1 X171.272 Y214.616 E222.00666
G1 X171.134 Y214.89 E222.01789
G1 X170.859 Y215.154 E222.03183
G1 X170.577 Y215.306 E222.04356
G1 X170.384 Y215.35 E222.0508
G1 X129.704 Y215.35 E223.53912
G1 X129.321 Y215.262 E223.5535
G1 X129.035 Y215.065 E223.56621
G1 X128.907 Y214.93 E223.57301
G1 X128.718 Y214.616 E223.58642
G1 X128.655 Y214.389 E223.59504
G1 X128.655 Y85.699 E228.30331
G1 X128.743 Y85.316 E228.31769
G0 F6000 X129.154 Y85.494
G1 F1200 X129.302 Y85.279 E228.32724
G1 X129.616 Y85.09 E228.34065
G1 X170.245 Y85.09 E229.8271
G1 X170.501 Y85.149 E229.83672
G1 X170.716 Y85.297 E229.84627
G1 X170.905 Y85.611 E229.85967
G1 X170.905 Y214.25 E234.56608
G1 X170.843 Y214.516 E234.57607
G1 X170.754 Y214.668 E234.58252
G1 X170.577 Y214.816 E234.59096
G1 X170.384 Y214.91 E234.59881
G1 X129.755 Y214.91 E236.08527
G1 X129.499 Y214.851 E236.09488
G1 X129.284 Y214.703 E236.10443
G1 X129.095 Y214.389 E236.11784
G1 X129.095 Y85.75 E240.82425
G1 X129.154 Y85.494 E240.83386
G0 F6000 X129.574 Y85.625
G1 F1200 X129.695 Y85.53 E240.83949
G1 X170.245 Y85.53 E242.32305
G1 X170.37 Y85.569 E242.32785
G1 X170.465 Y85.69 E242.33347
G1 X170.465 Y214.25 E247.03699
G1 X170.426 Y214.375 E247.04178
G1 X170.305 Y214.47 E247.04741
G1 X129.755 Y214.47 E248.53098
G1 X129.63 Y214.431 E248.53577
G1 X129.535 Y214.31 E248.5414
G1 X129.535 Y85.75 E253.24491
G1 X129.574 Y85.625 E253.2497
G1 F1500 E251.2497
;MESH:modul_3_poti.stl
G0 F6000 X129.574 Y85.085
G0 X136.765 Y85.085
G0 X136.765 Y86.463
;TYPE:WALL-INNER
