;FLAVOR:Marlin
;TIME:3623
;Filament used: 3.29678m
;Layer height: 0.2
;MINX:126.695
;MINY:77.61
;MINZ:0.2
;MAXX:173.305
;MAXY:222.39
;MAXZ:3
;Generated with Cura_SteamEngine 5.3.1
M140 S80
M105
M190 S80
M104 S215
M105
M109 S215
M82 ;absolute extrusion mode
G28 ; home all axes
 M420 S1 Z2 ; Load auto leveling
 M117 Purge extruder
 G92 E0 ; reset extruder
 G1 Z1.0 F3000 ; move z up little to prevent scratching of surface
 G1 X2 Y20 Z0.3 F5000.0 ; move to start-line position
 G1 X2 Y200.0 Z0.3 F1500.0 E15 ; draw 1st line
 G1 X2 Y200.0 Z0.4 F5000.0 ; move to side a little
 G1 X2 Y20 Z0.4 F1500.0 E30 ; draw 2nd line
 G92 E0 ; reset extruder
 G1 Z1.0 F3000 ; move z up little to prevent scratching of surface
G92 E0
G92 E0
G1 F1500 E-2
;LAYER_COUNT:15
;LAYER:0
M107
G0 F6000 X127.485 Y82.107 Z0.2
;TYPE:SKIRT
G1 F1500 E0
G1 F1200 X128.556 Y80.544 E0.06932
G1 X129.73 Y79.351 E0.13056
G1 X131.489 Y78.295 E0.20562
G1 X133.577 Y77.61 E0.28602
G1 X166.043 Y77.61 E1.47382
G1 X167.561 Y77.964 E1.53085
G1 X168.808 Y78.4 E1.57918
G1 X170.371 Y79.471 E1.6485
G1 X171.564 Y80.645 E1.70974
G1 X172.62 Y82.404 E1.7848
G1 X173.305 Y84.492 E1.8652
G1 X173.305 Y215.106 E6.64386
G1 X172.846 Y217.043 E6.71669
G1 X171.81 Y219.114 E6.80141
G1 X169.969 Y220.903 E6.89533
G1 X167.875 Y222.013 E6.98204
G1 X165.912 Y222.39 E7.05517
G1 X133.957 Y222.39 E8.22428
G1 X132.439 Y222.036 E8.28131
G1 X131.192 Y221.6 E8.32964
G1 X129.629 Y220.529 E8.39896
G1 X128.436 Y219.355 E8.4602
G1 X127.38 Y217.596 E8.53526
G1 X126.695 Y215.508 E8.61566
G1 X126.695 Y84.872 E13.39513
G1 X127.049 Y83.354 E13.45216
G1 X127.485 Y82.107 E13.50049
G0 F6000 X127.881 Y82.308
G1 F1200 X128.898 Y80.823 E13.56634
G1 X130.004 Y79.7 E13.624
G1 X131.674 Y78.697 E13.69528
G1 X133.647 Y78.05 E13.77124
G1 X165.99 Y78.05 E14.95455
G1 X167.461 Y78.393 E15.00981
G1 X168.607 Y78.796 E15.05425
G1 X170.092 Y79.813 E15.12011
G1 X171.215 Y80.919 E15.17777
G1 X172.218 Y82.589 E15.24904
G1 X172.865 Y84.562 E15.32501
G1 X172.865 Y215.056 E20.09928
G1 X172.431 Y216.889 E20.1682
G1 X171.45 Y218.85 E20.24842
G1 X169.706 Y220.544 E20.33737
G1 X167.726 Y221.594 E20.41937
G1 X165.871 Y221.95 E20.48848
G1 X134.01 Y221.95 E21.65415
G1 X132.539 Y221.607 E21.70941
G1 X131.393 Y221.204 E21.75385
G1 X129.908 Y220.187 E21.8197
G1 X128.785 Y219.081 E21.87737
G1 X127.782 Y217.411 E21.94864
G1 X127.135 Y215.438 E22.02461
G1 X127.135 Y84.925 E26.79958
G1 X127.478 Y83.454 E26.85484
G1 X127.881 Y82.308 E26.89928
G0 F6000 X128.277 Y82.509
G1 F1200 X129.238 Y81.106 E26.9615
G1 X130.281 Y80.046 E27.01591
G1 X131.857 Y79.1 E27.08316
G1 X133.717 Y78.49 E27.15477
G1 X165.937 Y78.49 E28.33358
G1 X167.361 Y78.822 E28.38707
G1 X168.406 Y79.192 E28.42763
G1 X169.809 Y80.153 E28.48985
G1 X170.869 Y81.196 E28.54426
G1 X171.815 Y82.772 E28.61151
G1 X172.425 Y84.632 E28.68312
G1 X172.425 Y215.006 E33.45301
G1 X172.016 Y216.735 E33.51801
G1 X171.089 Y218.588 E33.59381
G1 X169.445 Y220.184 E33.67764
G1 X167.577 Y221.175 E33.75501
G1 X165.83 Y221.51 E33.82009
G1 X134.063 Y221.51 E34.98232
G1 X132.639 Y221.178 E35.03582
G1 X131.594 Y220.808 E35.07637
G1 X130.191 Y219.847 E35.13859
G1 X129.131 Y218.804 E35.193
G1 X128.185 Y217.228 E35.26025
G1 X127.575 Y215.368 E35.33186
G1 X127.575 Y84.978 E40.10233
G1 X127.907 Y83.554 E40.15583
G1 X128.277 Y82.509 E40.19639
G0 F6000 X128.672 Y82.712
G1 F1200 X129.578 Y81.389 E40.25505
G1 X130.559 Y80.392 E40.30623
G1 X132.04 Y79.503 E40.36942
G1 X133.787 Y78.93 E40.43669
G1 X165.884 Y78.93 E41.61099
G1 X167.261 Y79.251 E41.66272
G1 X168.203 Y79.587 E41.69931
G1 X169.526 Y80.493 E41.75798
G1 X170.523 Y81.474 E41.80915
G1 X171.412 Y82.955 E41.87235
G1 X171.985 Y84.702 E41.93962
G1 X171.985 Y214.956 E46.70511
G1 X171.601 Y216.581 E46.7662
G1 X170.728 Y218.326 E46.83758
G1 X169.184 Y219.824 E46.91629
G1 X167.428 Y220.756 E46.98902
G1 X165.789 Y221.07 E47.05008
G1 X134.116 Y221.07 E48.20887
G1 X132.739 Y220.749 E48.2606
G1 X131.797 Y220.413 E48.29719
G1 X130.474 Y219.507 E48.35586
G1 X129.477 Y218.526 E48.40703
G1 X128.588 Y217.045 E48.47023
G1 X128.015 Y215.298 E48.53749
G1 X128.015 Y85.031 E53.30346
G1 X128.336 Y83.654 E53.35519
G1 X128.672 Y82.712 E53.39178
G0 F6000 X129.067 Y82.914
G1 F1200 X129.918 Y81.672 E53.44687
G1 X130.837 Y80.738 E53.49481
G1 X132.223 Y79.906 E53.55395
G1 X133.857 Y79.37 E53.61686
G1 X165.831 Y79.37 E54.78667
G1 X167.161 Y79.68 E54.83663
G1 X168.001 Y79.982 E54.86929
G1 X169.243 Y80.833 E54.92438
G1 X170.177 Y81.752 E54.97231
G1 X171.009 Y83.138 E55.03146
G1 X171.545 Y84.772 E55.09437
G1 X171.545 Y214.906 E59.85548
G1 X171.185 Y216.431 E59.9128
G1 X170.369 Y218.062 E59.97953
G1 X168.923 Y219.464 E60.05321
G1 X167.279 Y220.337 E60.12132
G1 X165.748 Y220.63 E60.17835
G1 X134.169 Y220.63 E61.3337
G1 X132.839 Y220.32 E61.38366
G1 X131.999 Y220.018 E61.41632
G1 X130.757 Y219.167 E61.47141
G1 X129.823 Y218.248 E61.51934
G1 X128.991 Y216.862 E61.57849
G1 X128.455 Y215.228 E61.6414
G1 X128.455 Y85.084 E66.40287
G1 X128.765 Y83.754 E66.45284
G1 X129.067 Y82.914 E66.48549
G0 F6000 X129.462 Y83.116
G1 F1200 X130.26 Y81.951 E66.53716
G1 X131.111 Y81.087 E66.58153
G1 X132.408 Y80.308 E66.63688
G1 X133.927 Y79.81 E66.69536
G1 X165.778 Y79.81 E67.86067
G1 X167.061 Y80.109 E67.90887
G1 X167.799 Y80.377 E67.93759
G1 X168.964 Y81.175 E67.98926
G1 X169.828 Y82.026 E68.03363
G1 X170.607 Y83.323 E68.08898
G1 X171.105 Y84.842 E68.14746
G1 X171.105 Y214.856 E72.90418
G1 X170.769 Y216.281 E72.95774
G1 X170.01 Y217.798 E73.0198
G1 X168.662 Y219.104 E73.08847
G1 X167.13 Y219.918 E73.15194
G1 X165.707 Y220.19 E73.20494
G1 X134.222 Y220.19 E74.35686
G1 X132.939 Y219.891 E74.40506
G1 X132.201 Y219.623 E74.43378
G1 X131.036 Y218.825 E74.48545
G1 X130.172 Y217.974 E74.52981
G1 X129.393 Y216.677 E74.58517
G1 X128.895 Y215.158 E74.64365
G1 X128.895 Y85.137 E79.40062
G1 X129.194 Y83.854 E79.44882
G1 X129.462 Y83.116 E79.47754
G0 F6000 X129.857 Y83.318
G1 F1200 X130.6 Y82.234 E79.52563
G1 X131.388 Y81.433 E79.56673
G1 X132.591 Y80.711 E79.61807
G1 X133.997 Y80.25 E79.6722
G1 X165.726 Y80.25 E80.83304
G1 X166.911 Y80.523 E80.87753
G1 X167.597 Y80.772 E80.90423
G1 X168.681 Y81.515 E80.95231
G1 X169.482 Y82.303 E80.99342
G1 X170.204 Y83.506 E81.04476
G1 X170.665 Y84.912 E81.09889
G1 X170.665 Y214.806 E85.85121
G1 X170.353 Y216.131 E85.90101
G1 X169.651 Y217.534 E85.95841
G1 X168.4 Y218.745 E86.02211
G1 X166.982 Y219.499 E86.08087
G1 X165.667 Y219.75 E86.12985
G1 X134.274 Y219.75 E87.2784
G1 X133.089 Y219.477 E87.32289
G1 X132.403 Y219.228 E87.34959
G1 X131.319 Y218.485 E87.39767
G1 X130.518 Y217.697 E87.43878
G1 X129.796 Y216.494 E87.49011
G1 X129.335 Y215.088 E87.54424
G1 X129.335 Y85.189 E92.29675
G1 X129.608 Y84.004 E92.34124
G1 X129.857 Y83.318 E92.36794
G0 F6000 X130.251 Y83.521
G1 F1200 X130.94 Y82.517 E92.41249
G1 X131.666 Y81.779 E92.45037
G1 X132.774 Y81.114 E92.49764
G1 X134.067 Y80.69 E92.54743
G1 X165.675 Y80.69 E93.70384
G1 X166.812 Y80.952 E93.74653
G1 X167.394 Y81.166 E93.76922
G1 X168.398 Y81.855 E93.81377
G1 X169.136 Y82.581 E93.85164
G1 X169.801 Y83.689 E93.89892
G1 X170.225 Y84.982 E93.94871
G1 X170.225 Y214.756 E98.69664
G1 X169.937 Y215.981 E98.74268
G1 X169.292 Y217.27 E98.79541
G1 X168.138 Y218.386 E98.85415
G1 X166.835 Y219.079 E98.90814
G1 X165.626 Y219.31 E98.95317
G1 X134.325 Y219.31 E100.09836
G1 X133.188 Y219.048 E100.14104
G1 X132.606 Y218.834 E100.16373
G1 X131.602 Y218.145 E100.20828
G1 X130.864 Y217.419 E100.24616
G1 X130.199 Y216.311 E100.29343
G1 X129.775 Y215.018 E100.34322
G1 X129.775 Y85.24 E105.0913
G1 X130.037 Y84.103 E105.13399
G1 X130.251 Y83.521 E105.15667
G0 F6000 X130.644 Y83.726
G1 F1200 X131.28 Y82.8 E105.19777
G1 X131.944 Y82.125 E105.23241
G1 X132.957 Y81.517 E105.27564
G1 X134.137 Y81.13 E105.32107
G1 X165.624 Y81.13 E106.47306
G1 X166.713 Y81.381 E106.51395
G1 X167.189 Y81.559 E106.53254
G1 X168.115 Y82.195 E106.57364
G1 X168.79 Y82.859 E106.60828
G1 X169.398 Y83.872 E106.65151
G1 X169.785 Y85.052 E106.69694
G1 X169.785 Y214.706 E111.44048
G1 X169.521 Y215.827 E111.48262
G1 X168.931 Y217.007 E111.53088
G1 X167.876 Y218.027 E111.58457
G1 X166.687 Y218.66 E111.63385
G1 X165.586 Y218.87 E111.67486
G1 X134.376 Y218.87 E112.81672
G1 X133.287 Y218.619 E112.8576
G1 X132.811 Y218.441 E112.87619
G1 X131.885 Y217.805 E112.91729
G1 X131.21 Y217.141 E112.95194
G1 X130.602 Y216.128 E112.99516
G1 X130.215 Y214.948 E113.0406
G1 X130.215 Y85.291 E117.78425
G1 X130.466 Y84.202 E117.82513
G1 X130.644 Y83.726 E117.84373
G0 F6000 X131.038 Y83.93
G1 F1200 X131.62 Y83.083 E117.88132
G1 X132.222 Y82.471 E117.91273
G1 X133.14 Y81.92 E117.9519
G1 X134.207 Y81.57 E117.99299
G1 X165.573 Y81.57 E119.14055
G1 X166.614 Y81.81 E119.17963
G1 X166.985 Y81.953 E119.19418
G1 X167.832 Y82.535 E119.23178
G1 X168.444 Y83.137 E119.26319
G1 X168.995 Y84.055 E119.30236
G1 X169.345 Y85.122 E119.34344
G1 X169.345 Y214.656 E124.08259
G1 X169.105 Y215.677 E124.12097
G1 X168.572 Y216.742 E124.16454
G1 X167.614 Y217.668 E124.21328
G1 X166.54 Y218.24 E124.2578
G1 X165.545 Y218.43 E124.29486
G1 X134.427 Y218.43 E125.43335
G1 X133.386 Y218.19 E125.47244
G1 X133.015 Y218.047 E125.48698
G1 X132.168 Y217.465 E125.52458
G1 X131.556 Y216.863 E125.55599
G1 X131.005 Y215.945 E125.59516
G1 X130.655 Y214.878 E125.63625
G1 X130.655 Y85.342 E130.37547
G1 X130.895 Y84.301 E130.41455
G1 X131.038 Y83.93 E130.4291
G0 F6000 X131.429 Y84.139
G1 F1200 X131.96 Y83.366 E130.46341
G1 X132.5 Y82.817 E130.49159
G1 X133.323 Y82.323 E130.5267
G1 X134.277 Y82.01 E130.56344
G1 X165.522 Y82.01 E131.70657
G1 X166.515 Y82.239 E131.74386
G1 X166.776 Y82.344 E131.75415
G1 X167.549 Y82.875 E131.78846
G1 X168.098 Y83.415 E131.81663
G1 X168.592 Y84.238 E131.85175
G1 X168.905 Y85.192 E131.88848
G1 X168.905 Y214.606 E136.62324
G1 X168.689 Y215.523 E136.65771
G1 X168.211 Y216.479 E136.69682
G1 X167.352 Y217.309 E136.74052
G1 X166.392 Y217.821 E136.78032
G1 X165.505 Y217.99 E136.81336
G1 X134.478 Y217.99 E137.94852
G1 X133.485 Y217.761 E137.9858
G1 X133.224 Y217.656 E137.99609
G1 X132.451 Y217.125 E138.03041
G1 X131.902 Y216.585 E138.05858
G1 X131.408 Y215.762 E138.0937
G1 X131.095 Y214.808 E138.13043
G1 X131.095 Y85.393 E142.86523
G1 X131.324 Y84.4 E142.90251
G1 X131.429 Y84.139 E142.9128
G0 F6000 X131.819 Y84.349
G1 F1200 X132.3 Y83.649 E142.94388
G1 X132.778 Y83.163 E142.96882
G1 X133.506 Y82.726 E142.99988
G1 X134.347 Y82.45 E143.03227
G1 X165.471 Y82.45 E144.17097
G1 X166.416 Y82.668 E144.20646
G1 X166.566 Y82.734 E144.21245
G1 X167.266 Y83.215 E144.24352
G1 X167.752 Y83.693 E144.26846
G1 X168.189 Y84.421 E144.29953
G1 X168.465 Y85.262 E144.33191
G1 X168.465 Y214.556 E149.06228
G1 X168.273 Y215.373 E149.09299
G1 X167.852 Y216.214 E149.1274
G1 X167.09 Y216.95 E149.16616
G1 X166.244 Y217.401 E149.20123
G1 X165.464 Y217.55 E149.23028
G1 X134.529 Y217.55 E150.36208
G1 X133.584 Y217.332 E150.39756
G1 X133.434 Y217.266 E150.40355
G1 X132.734 Y216.785 E150.43463
G1 X132.248 Y216.307 E150.45957
G1 X131.811 Y215.579 E150.49063
G1 X131.535 Y214.738 E150.52302
G1 X131.535 Y85.444 E155.25339
G1 X131.753 Y84.499 E155.28887
G1 X131.819 Y84.349 E155.29486
G0 F6000 X132.182 Y84.598
G1 F1200 X131.975 Y85.495 E155.32854
G1 X131.975 Y214.668 E160.05449
G1 X132.214 Y215.396 E160.08252
G1 X132.594 Y216.029 E160.10953
G1 X133.017 Y216.445 E160.13124
G1 X133.683 Y216.903 E160.16081
G1 X134.58 Y217.11 E160.19449
G1 X165.424 Y217.11 E161.32295
G1 X166.096 Y216.982 E161.34798
G1 X166.826 Y216.592 E161.37826
G1 X167.492 Y215.949 E161.41213
G1 X167.857 Y215.219 E161.44199
G1 X168.025 Y214.506 E161.46879
G1 X168.025 Y85.332 E166.19477
G1 X167.786 Y84.604 E166.2228
G1 X167.406 Y83.971 E166.24982
G1 X166.983 Y83.555 E166.27152
G1 X166.317 Y83.097 E166.30109
G1 X165.42 Y82.89 E166.33477
G1 X134.417 Y82.89 E167.46905
G1 X133.689 Y83.129 E167.49709
G1 X133.056 Y83.509 E167.5241
G1 X132.64 Y83.932 E167.5458
G1 X132.182 Y84.598 E167.57538
G0 F6000 X132.592 Y84.778
G1 F1200 X132.979 Y84.216 E167.60034
G1 X133.334 Y83.855 E167.61887
G1 X133.872 Y83.532 E167.64182
G1 X134.487 Y83.33 E167.66551
G1 X165.369 Y83.33 E168.79536
G1 X166.137 Y83.507 E168.8242
G1 X166.699 Y83.894 E168.84916
G1 X167.06 Y84.249 E168.86768
G1 X167.383 Y84.787 E168.89064
G1 X167.585 Y85.402 E168.91433
G1 X167.585 Y214.456 E173.63591
G1 X167.441 Y215.069 E173.65895
G1 X167.134 Y215.682 E173.68403
G1 X166.563 Y216.233 E173.71307
G1 X165.946 Y216.563 E173.73867
G1 X165.384 Y216.67 E173.7596
G1 X134.631 Y216.67 E174.88473
G1 X133.863 Y216.493 E174.91356
G1 X133.301 Y216.106 E174.93853
G1 X132.94 Y215.751 E174.95705
G1 X132.617 Y215.213 E174.98001
G1 X132.415 Y214.598 E175.00369
G1 X132.415 Y85.546 E179.72521
G1 X132.592 Y84.778 E179.75404
G0 F6000 X133.002 Y84.958
G1 F1200 X133.32 Y84.497 E179.77453
G1 X133.608 Y84.204 E179.78957
G1 X134.057 Y83.934 E179.80873
G1 X134.557 Y83.77 E179.82799
G1 X165.318 Y83.77 E180.95341
G1 X165.957 Y83.917 E180.9774
G1 X166.418 Y84.235 E180.99789
G1 X166.711 Y84.523 E181.01292
G1 X166.981 Y84.972 E181.03209
G1 X167.145 Y85.472 E181.05134
G1 X167.145 Y214.406 E185.76854
G1 X167.025 Y214.915 E185.78767
G1 X166.773 Y215.419 E185.80829
G1 X166.302 Y215.873 E185.83222
G1 X165.796 Y216.144 E185.85323
G1 X165.344 Y216.23 E185.87006
G1 X134.682 Y216.23 E186.99186
G1 X134.043 Y216.083 E187.01585
G1 X133.582 Y215.765 E187.03634
G1 X133.289 Y215.477 E187.05137
G1 X133.019 Y215.028 E187.07054
G1 X132.855 Y214.528 E187.08979
G1 X132.855 Y85.597 E191.80688
G1 X133.002 Y84.958 E191.83087
G0 F6000 X133.413 Y85.136
G1 F1200 X133.658 Y84.78 E191.84668
G1 X133.882 Y84.553 E191.85835
G1 X134.242 Y84.336 E191.87373
G1 X134.627 Y84.21 E191.88855
G1 X165.267 Y84.21 E193.00955
G1 X165.779 Y84.328 E193.02877
G1 X166.135 Y84.573 E193.04458
G1 X166.362 Y84.797 E193.05625
G1 X166.579 Y85.157 E193.07163
G1 X166.705 Y85.542 E193.08645
G1 X166.705 Y214.356 E197.79926
G1 X166.609 Y214.765 E197.81463
G1 X166.414 Y215.154 E197.83055
G1 X166.041 Y215.513 E197.84949
G1 X165.646 Y215.725 E197.86589
G1 X165.304 Y215.79 E197.87863
G1 X134.733 Y215.79 E198.9971
G1 X134.221 Y215.672 E199.01633
G1 X133.865 Y215.427 E199.03214
G1 X133.638 Y215.203 E199.04381
G1 X133.421 Y214.843 E199.05918
G1 X133.295 Y214.458 E199.074
G1 X133.295 Y85.648 E203.78667
G1 X133.413 Y85.136 E203.80589
G0 F6000 X133.823 Y85.316
G1 F1200 X134.02 Y85.03 E203.8186
G1 X134.155 Y84.902 E203.8254
G1 X134.469 Y84.713 E203.83881
G1 X134.696 Y84.65 E203.84743
G1 X165.216 Y84.65 E204.96404
G1 X165.599 Y84.738 E204.97842
G1 X165.885 Y84.935 E204.99112
G1 X166.013 Y85.07 E204.99793
G1 X166.202 Y85.384 E205.01134
G1 X166.265 Y85.611 E205.01996
G1 X166.265 Y214.303 E209.7283
G1 X166.192 Y214.616 E209.74006
G1 X166.054 Y214.89 E209.75128
G1 X165.779 Y215.154 E209.76523
G1 X165.497 Y215.306 E209.77695
G1 X165.304 Y215.35 E209.78419
G1 X134.784 Y215.35 E210.9008
G1 X134.401 Y215.262 E210.91518
G1 X134.115 Y215.065 E210.92789
G1 X133.987 Y214.93 E210.93469
G1 X133.798 Y214.616 E210.9481
G1 X133.735 Y214.389 E210.95672
G1 X133.735 Y85.699 E215.66499
G1 X133.823 Y85.316 E215.67937
G0 F6000 X134.234 Y85.494
G1 F1200 X134.382 Y85.279 E215.68892
G1 X134.696 Y85.09 E215.70233
G1 X165.165 Y85.09 E216.81707
G1 X165.421 Y85.149 E216.82668
G1 X165.636 Y85.297 E216.83623
G1 X165.825 Y85.611 E216.84964
G1 X165.825 Y214.25 E221.55605
G1 X165.763 Y214.516 E221.56604
G1 X165.674 Y214.668 E221.57248
G1 X165.497 Y214.816 E221.58092
G1 X165.304 Y214.91 E221.58878
G1 X134.835 Y214.91 E222.70352
G1 X134.579 Y214.851 E222.71313
G1 X134.364 Y214.703 E222.72268
G1 X134.175 Y214.389 E222.73609
G1 X134.175 Y85.75 E227.4425
G1 X134.234 Y85.494 E227.45211
G0 F6000 X134.654 Y85.625
G1 F1200 X134.775 Y85.53 E227.45774
G1 X165.165 Y85.53 E228.56959
G1 X165.29 Y85.569 E228.57438
G1 X165.385 Y85.69 E228.58001
G1 X165.385 Y214.25 E233.28352
G1 X165.346 Y214.375 E233.28831
G1 X165.225 Y214.47 E233.29394
G1 X134.835 Y214.47 E234.4058
G1 X134.71 Y214.431 E234.41059
G1 X134.615 Y214.31 E234.41621
G1 X134.615 Y85.75 E239.11973
G1 X134.654 Y85.625 E239.12452
G1 F1500 E237.12452
;MESH:blindplatte_6te.stl
G0 F6000 X134.654 Y85.085
G0 X141.845 Y85.085
G0 X141.845 Y86.463
