;FLAVOR:Marlin
;TIME:13604
;Filament used: 13.6583m
;Layer height: 0.2
;MINX:83.49
;MINY:76.185
;MINZ:0.2
;MAXX:216.51
;MAXY:223.815
;MAXZ:5
;Generated with Cura_SteamEngine 5.3.1
M140 S80
M105
M190 S80
M104 S215
M105
M109 S215
M82 ;absolute extrusion mode
G28 ; home all axes
 M420 S1 Z2 ; Load auto leveling
 M117 Purge extruder
 G92 E0 ; reset extruder
 G1 Z1.0 F3000 ; move z up little to prevent scratching of surface
 G1 X2 Y20 Z0.3 F5000.0 ; move to start-line position
 G1 X2 Y200.0 Z0.3 F1500.0 E15 ; draw 1st line
 G1 X2 Y200.0 Z0.4 F5000.0 ; move to side a little
 G1 X2 Y20 Z0.4 F1500.0 E30 ; draw 2nd line
 G92 E0 ; reset extruder
 G1 Z1.0 F3000 ; move z up little to prevent scratching of surface
G92 E0
G92 E0
G1 F1500 E-2
;LAYER_COUNT:25
;LAYER:0
M107
G0 F6000 X85.351 Y79.119 Z0.2
;TYPE:SKIRT
G1 F1500 E0
G1 F1200 X86.525 Y77.926 E0.06124
G1 X88.284 Y76.87 E0.1363
G1 X90.372 Y76.185 E0.2167
G1 X209.248 Y76.185 E4.56591
G1 X210.766 Y76.539 E4.62294
G1 X212.013 Y76.975 E4.67127
G1 X213.576 Y78.046 E4.74059
G1 X214.769 Y79.22 E4.80183
G1 X215.825 Y80.979 E4.87689
G1 X216.51 Y83.067 E4.95729
G1 X216.51 Y216.531 E9.84022
G1 X216.051 Y218.468 E9.91305
G1 X215.015 Y220.539 E9.99777
G1 X213.174 Y222.328 E10.09169
G1 X211.08 Y223.438 E10.1784
G1 X209.117 Y223.815 E10.25153
G1 X90.752 Y223.815 E14.58205
G1 X89.234 Y223.461 E14.63908
G1 X87.987 Y223.025 E14.68741
G1 X86.424 Y221.954 E14.75673
G1 X85.231 Y220.78 E14.81797
G1 X84.175 Y219.021 E14.89303
G1 X83.49 Y216.933 E14.97343
G1 X83.49 Y83.447 E19.85717
G1 X83.844 Y81.929 E19.91419
G1 X84.28 Y80.682 E19.96253
G1 X85.351 Y79.119 E20.03185
G0 F6000 X85.693 Y79.398
G1 F1200 X86.799 Y78.275 E20.08951
G1 X88.469 Y77.272 E20.16079
G1 X90.442 Y76.625 E20.23675
G1 X209.195 Y76.625 E24.58147
G1 X210.666 Y76.968 E24.63673
G1 X211.812 Y77.371 E24.68117
G1 X213.297 Y78.388 E24.74702
G1 X214.42 Y79.494 E24.80469
G1 X215.423 Y81.164 E24.87596
G1 X216.07 Y83.137 E24.95193
G1 X216.07 Y216.481 E29.83047
G1 X215.636 Y218.314 E29.89939
G1 X214.655 Y220.275 E29.97961
G1 X212.911 Y221.969 E30.06856
G1 X210.931 Y223.019 E30.15056
G1 X209.076 Y223.375 E30.21966
G1 X90.805 Y223.375 E34.54674
G1 X89.334 Y223.032 E34.60201
G1 X88.188 Y222.629 E34.64645
G1 X86.703 Y221.612 E34.7123
G1 X85.58 Y220.506 E34.76997
G1 X84.577 Y218.836 E34.84124
G1 X83.93 Y216.863 E34.91721
G1 X83.93 Y83.5 E39.79644
G1 X84.273 Y82.029 E39.85171
G1 X84.676 Y80.883 E39.89615
G1 X85.693 Y79.398 E39.962
G0 F6000 X86.033 Y79.681
G1 F1200 X87.076 Y78.621 E40.01641
G1 X88.652 Y77.675 E40.08366
G1 X90.512 Y77.065 E40.15527
G1 X209.142 Y77.065 E44.49549
G1 X210.566 Y77.397 E44.54898
G1 X211.611 Y77.767 E44.58954
G1 X213.014 Y78.728 E44.65176
G1 X214.074 Y79.771 E44.70617
G1 X215.02 Y81.347 E44.77342
G1 X215.63 Y83.207 E44.84503
G1 X215.63 Y216.431 E49.71919
G1 X215.221 Y218.16 E49.78419
G1 X214.294 Y220.013 E49.85999
G1 X212.65 Y221.609 E49.94382
G1 X210.782 Y222.6 E50.02119
G1 X209.035 Y222.935 E50.08627
G1 X90.858 Y222.935 E54.40991
G1 X89.434 Y222.603 E54.46341
G1 X88.389 Y222.233 E54.50396
G1 X86.986 Y221.272 E54.56618
G1 X85.926 Y220.229 E54.62059
G1 X84.98 Y218.653 E54.68784
G1 X84.37 Y216.793 E54.75945
G1 X84.37 Y83.553 E59.63419
G1 X84.702 Y82.129 E59.68769
G1 X85.072 Y81.084 E59.72825
G1 X86.033 Y79.681 E59.79046
G0 F6000 X86.373 Y79.964
G1 F1200 X87.354 Y78.967 E59.84164
G1 X88.835 Y78.078 E59.90483
G1 X90.582 Y77.505 E59.9721
G1 X209.089 Y77.505 E64.30781
G1 X210.466 Y77.826 E64.35954
G1 X211.408 Y78.162 E64.39614
G1 X212.731 Y79.068 E64.4548
G1 X213.728 Y80.049 E64.50597
G1 X214.617 Y81.53 E64.56917
G1 X215.19 Y83.277 E64.63644
G1 X215.19 Y216.381 E69.5062
G1 X214.806 Y218.006 E69.56729
G1 X213.933 Y219.751 E69.63868
G1 X212.389 Y221.249 E69.71738
G1 X210.633 Y222.181 E69.79012
G1 X208.994 Y222.495 E69.85117
G1 X90.911 Y222.495 E74.17137
G1 X89.534 Y222.174 E74.2231
G1 X88.592 Y221.838 E74.25969
G1 X87.269 Y220.932 E74.31836
G1 X86.272 Y219.951 E74.36953
G1 X85.383 Y218.47 E74.43273
G1 X84.81 Y216.723 E74.5
G1 X84.81 Y83.606 E79.37023
G1 X85.131 Y82.229 E79.42196
G1 X85.467 Y81.287 E79.45855
G1 X86.373 Y79.964 E79.51722
G0 F6000 X86.713 Y80.247
G1 F1200 X87.632 Y79.313 E79.56516
G1 X89.018 Y78.481 E79.6243
G1 X90.652 Y77.945 E79.68722
G1 X209.036 Y77.945 E84.01843
G1 X210.366 Y78.255 E84.0684
G1 X211.206 Y78.557 E84.10105
G1 X212.448 Y79.408 E84.15614
G1 X213.382 Y80.327 E84.20408
G1 X214.214 Y81.713 E84.26322
G1 X214.75 Y83.347 E84.32614
G1 X214.75 Y216.331 E89.19151
G1 X214.39 Y217.856 E89.24884
G1 X213.574 Y219.487 E89.31556
G1 X212.128 Y220.889 E89.38925
G1 X210.484 Y221.762 E89.45735
G1 X208.953 Y222.055 E89.51438
G1 X90.964 Y222.055 E93.83114
G1 X89.634 Y221.745 E93.88111
G1 X88.794 Y221.443 E93.91376
G1 X87.552 Y220.592 E93.96885
G1 X86.618 Y219.673 E94.01679
G1 X85.786 Y218.287 E94.07593
G1 X85.25 Y216.653 E94.13885
G1 X85.25 Y83.659 E99.00458
G1 X85.56 Y82.329 E99.05455
G1 X85.862 Y81.489 E99.08721
G1 X86.713 Y80.247 E99.14229
G0 F6000 X87.055 Y80.526
G1 F1200 X87.906 Y79.662 E99.18666
G1 X89.203 Y78.883 E99.24201
G1 X90.722 Y78.385 E99.3005
G1 X208.983 Y78.385 E103.62721
G1 X210.266 Y78.684 E103.67541
G1 X211.004 Y78.952 E103.70414
G1 X212.169 Y79.75 E103.7558
G1 X213.033 Y80.601 E103.80017
G1 X213.812 Y81.898 E103.85552
G1 X214.31 Y83.417 E103.91401
G1 X214.31 Y216.281 E108.77499
G1 X213.974 Y217.706 E108.82855
G1 X213.215 Y219.223 E108.89061
G1 X211.867 Y220.529 E108.95928
G1 X210.335 Y221.343 E109.02275
G1 X208.912 Y221.615 E109.07576
G1 X91.017 Y221.615 E113.38908
G1 X89.734 Y221.316 E113.43728
G1 X88.996 Y221.048 E113.466
G1 X87.831 Y220.25 E113.51767
G1 X86.967 Y219.399 E113.56204
G1 X86.188 Y218.102 E113.61739
G1 X85.69 Y216.583 E113.67587
G1 X85.69 Y83.712 E118.53711
G1 X85.989 Y82.429 E118.58531
G1 X86.257 Y81.691 E118.61404
G1 X87.055 Y80.526 E118.6657
G0 F6000 X87.395 Y80.809
G1 F1200 X88.183 Y80.008 E118.70681
G1 X89.386 Y79.286 E118.75814
G1 X90.792 Y78.825 E118.81228
G1 X208.931 Y78.825 E123.13453
G1 X210.116 Y79.098 E123.17902
G1 X210.802 Y79.347 E123.20572
G1 X211.886 Y80.09 E123.2538
G1 X212.687 Y80.878 E123.29491
G1 X213.409 Y82.081 E123.34624
G1 X213.87 Y83.487 E123.40037
G1 X213.87 Y216.231 E128.25697
G1 X213.558 Y217.556 E128.30677
G1 X212.856 Y218.959 E128.36416
G1 X211.605 Y220.17 E128.42787
G1 X210.187 Y220.924 E128.48662
G1 X208.872 Y221.175 E128.5356
G1 X91.069 Y221.175 E132.84556
G1 X89.884 Y220.902 E132.89005
G1 X89.198 Y220.653 E132.91675
G1 X88.114 Y219.91 E132.96483
G1 X87.313 Y219.122 E133.00594
G1 X86.591 Y217.919 E133.05727
G1 X86.13 Y216.513 E133.11141
G1 X86.13 Y83.764 E137.96818
G1 X86.403 Y82.579 E138.01267
G1 X86.652 Y81.893 E138.03937
G1 X87.395 Y80.809 E138.08745
G0 F6000 X87.735 Y81.092
G1 F1200 X88.461 Y80.354 E138.12533
G1 X89.569 Y79.689 E138.17261
G1 X90.862 Y79.265 E138.22239
G1 X208.88 Y79.265 E142.54022
G1 X210.017 Y79.527 E142.5829
G1 X210.599 Y79.741 E142.60559
G1 X211.603 Y80.43 E142.65014
G1 X212.341 Y81.156 E142.68802
G1 X213.006 Y82.264 E142.7353
G1 X213.43 Y83.557 E142.78508
G1 X213.43 Y216.181 E147.63728
G1 X213.142 Y217.406 E147.68332
G1 X212.497 Y218.695 E147.73606
G1 X211.343 Y219.811 E147.79479
G1 X210.04 Y220.504 E147.84878
G1 X208.831 Y220.735 E147.89382
G1 X91.12 Y220.735 E152.20041
G1 X89.983 Y220.473 E152.2431
G1 X89.401 Y220.259 E152.26578
G1 X88.397 Y219.57 E152.31033
G1 X87.659 Y218.844 E152.34821
G1 X86.994 Y217.736 E152.39549
G1 X86.57 Y216.443 E152.44527
G1 X86.57 Y83.815 E157.29762
G1 X86.832 Y82.678 E157.34031
G1 X87.046 Y82.096 E157.363
G1 X87.735 Y81.092 E157.40755
G0 F6000 X88.075 Y81.375
G1 F1200 X88.739 Y80.7 E157.44219
G1 X89.752 Y80.092 E157.48541
G1 X90.932 Y79.705 E157.53085
G1 X208.829 Y79.705 E161.84424
G1 X209.918 Y79.956 E161.88513
G1 X210.394 Y80.134 E161.90372
G1 X211.32 Y80.77 E161.94482
G1 X211.995 Y81.434 E161.97946
G1 X212.603 Y82.447 E162.02269
G1 X212.99 Y83.627 E162.06812
G1 X212.99 Y216.131 E166.91593
G1 X212.726 Y217.252 E166.95807
G1 X212.136 Y218.432 E167.00634
G1 X211.081 Y219.452 E167.06003
G1 X209.892 Y220.085 E167.10931
G1 X208.791 Y220.295 E167.15031
G1 X91.171 Y220.295 E171.45358
G1 X90.082 Y220.044 E171.49446
G1 X89.606 Y219.866 E171.51306
G1 X88.68 Y219.23 E171.55416
G1 X88.005 Y218.566 E171.5888
G1 X87.397 Y217.553 E171.63202
G1 X87.01 Y216.373 E171.67746
G1 X87.01 Y83.866 E176.52538
G1 X87.261 Y82.777 E176.56627
G1 X87.439 Y82.301 E176.58486
G1 X88.075 Y81.375 E176.62596
G0 F6000 X88.415 Y81.658
G1 F1200 X89.017 Y81.046 E176.65737
G1 X89.935 Y80.495 E176.69654
G1 X91.002 Y80.145 E176.73762
G1 X208.778 Y80.145 E181.04659
G1 X209.819 Y80.385 E181.08568
G1 X210.19 Y80.528 E181.10022
G1 X211.037 Y81.11 E181.13782
G1 X211.649 Y81.712 E181.16923
G1 X212.2 Y82.63 E181.2084
G1 X212.55 Y83.697 E181.24949
G1 X212.55 Y216.081 E186.09291
G1 X212.31 Y217.102 E186.13128
G1 X211.777 Y218.167 E186.17485
G1 X210.819 Y219.093 E186.2236
G1 X209.745 Y219.665 E186.26812
G1 X208.75 Y219.855 E186.30518
G1 X91.222 Y219.855 E190.60507
G1 X90.181 Y219.615 E190.64416
G1 X89.81 Y219.472 E190.65871
G1 X88.963 Y218.89 E190.69631
G1 X88.351 Y218.288 E190.72771
G1 X87.8 Y217.37 E190.76688
G1 X87.45 Y216.303 E190.80797
G1 X87.45 Y83.917 E195.65146
G1 X87.69 Y82.876 E195.69055
G1 X87.833 Y82.505 E195.70509
G1 X88.415 Y81.658 E195.74269
G0 F6000 X88.755 Y81.941
G1 F1200 X89.295 Y81.392 E195.77087
G1 X90.118 Y80.898 E195.80599
G1 X91.072 Y80.585 E195.84272
G1 X208.727 Y80.585 E200.14726
G1 X209.72 Y80.814 E200.18455
G1 X209.981 Y80.919 E200.19484
G1 X210.754 Y81.45 E200.22915
G1 X211.303 Y81.99 E200.25732
G1 X211.797 Y82.813 E200.29244
G1 X212.11 Y83.767 E200.32918
G1 X212.11 Y216.031 E205.16821
G1 X211.894 Y216.948 E205.20267
G1 X211.416 Y217.904 E205.24178
G1 X210.557 Y218.734 E205.28548
G1 X209.597 Y219.246 E205.32529
G1 X208.71 Y219.415 E205.35832
G1 X91.273 Y219.415 E209.65489
G1 X90.28 Y219.186 E209.69217
G1 X90.019 Y219.081 E209.70246
G1 X89.246 Y218.55 E209.73678
G1 X88.697 Y218.01 E209.76495
G1 X88.203 Y217.187 E209.80007
G1 X87.89 Y216.233 E209.8368
G1 X87.89 Y83.968 E214.67587
G1 X88.119 Y82.975 E214.71315
G1 X88.224 Y82.714 E214.72344
G1 X88.755 Y81.941 E214.75776
G0 F6000 X89.095 Y82.224
G1 F1200 X89.573 Y81.738 E214.7827
G1 X90.301 Y81.301 E214.81376
G1 X91.142 Y81.025 E214.84614
G1 X208.676 Y81.025 E219.14626
G1 X209.621 Y81.243 E219.18174
G1 X209.771 Y81.309 E219.18774
G1 X210.471 Y81.79 E219.21881
G1 X210.957 Y82.268 E219.24375
G1 X211.394 Y82.996 E219.27482
G1 X211.67 Y83.837 E219.3072
G1 X211.67 Y215.981 E224.14184
G1 X211.478 Y216.798 E224.17255
G1 X211.057 Y217.639 E224.20695
G1 X210.295 Y218.375 E224.24571
G1 X209.449 Y218.826 E224.28079
G1 X208.669 Y218.975 E224.30984
G1 X91.324 Y218.975 E228.60304
G1 X90.379 Y218.757 E228.63853
G1 X90.229 Y218.691 E228.64452
G1 X89.529 Y218.21 E228.6756
G1 X89.043 Y217.732 E228.70053
G1 X88.606 Y217.004 E228.7316
G1 X88.33 Y216.163 E228.76398
G1 X88.33 Y84.019 E233.59862
G1 X88.548 Y83.074 E233.63411
G1 X88.614 Y82.924 E233.6401
G1 X89.095 Y82.224 E233.67117
G0 F6000 X89.435 Y82.507
G1 F1200 X89.851 Y82.084 E233.69288
G1 X90.484 Y81.704 E233.71989
G1 X91.212 Y81.465 E233.74793
G1 X208.625 Y81.465 E238.04362
G1 X209.522 Y81.672 E238.0773
G1 X210.188 Y82.13 E238.10687
G1 X210.611 Y82.546 E238.12857
G1 X210.991 Y83.179 E238.15558
G1 X211.23 Y83.907 E238.18362
G1 X211.23 Y215.931 E243.01387
G1 X211.062 Y216.644 E243.04067
G1 X210.697 Y217.374 E243.07053
G1 X210.031 Y218.017 E243.1044
G1 X209.301 Y218.407 E243.13468
G1 X208.629 Y218.535 E243.15971
G1 X91.375 Y218.535 E247.44958
G1 X90.478 Y218.328 E247.48326
G1 X89.812 Y217.87 E247.51283
G1 X89.389 Y217.454 E247.53454
G1 X89.009 Y216.821 E247.56155
G1 X88.77 Y216.093 E247.58958
G1 X88.77 Y84.07 E252.41979
G1 X88.977 Y83.173 E252.45347
G1 X89.435 Y82.507 E252.48305
G0 F6000 X89.774 Y82.791
G1 F1200 X90.129 Y82.43 E252.50157
G1 X90.667 Y82.107 E252.52453
G1 X91.282 Y81.905 E252.54821
G1 X208.574 Y81.905 E256.83947
G1 X209.342 Y82.082 E256.86831
G1 X209.904 Y82.469 E256.89327
G1 X210.265 Y82.824 E256.9118
G1 X210.588 Y83.362 E256.93476
G1 X210.79 Y83.977 E256.95844
G1 X210.79 Y215.881 E261.7843
G1 X210.646 Y216.494 E261.80734
G1 X210.339 Y217.107 E261.83242
G1 X209.768 Y217.658 E261.86145
G1 X209.151 Y217.988 E261.88705
G1 X208.589 Y218.095 E261.90798
G1 X91.426 Y218.095 E266.19452
G1 X90.658 Y217.918 E266.22336
G1 X90.096 Y217.531 E266.24832
G1 X89.735 Y217.176 E266.26685
G1 X89.412 Y216.638 E266.28981
G1 X89.21 Y216.023 E266.31349
G1 X89.21 Y84.121 E271.13927
G1 X89.387 Y83.353 E271.16811
G1 X89.774 Y82.791 E271.19307
G0 F6000 X90.115 Y83.072
G1 F1200 X90.403 Y82.779 E271.20811
G1 X90.852 Y82.509 E271.22727
G1 X91.352 Y82.345 E271.24653
G1 X208.523 Y82.345 E275.53336
G1 X209.162 Y82.492 E275.55735
G1 X209.623 Y82.81 E275.57784
G1 X209.916 Y83.098 E275.59287
G1 X210.186 Y83.547 E275.61204
G1 X210.35 Y84.047 E275.63129
G1 X210.35 Y215.831 E280.45276
G1 X210.23 Y216.34 E280.47189
G1 X209.978 Y216.844 E280.49251
G1 X209.507 Y217.298 E280.51644
G1 X209.001 Y217.569 E280.53744
G1 X208.549 Y217.655 E280.55428
G1 X91.477 Y217.655 E284.83749
G1 X90.838 Y217.508 E284.86148
G1 X90.377 Y217.19 E284.88197
G1 X90.084 Y216.902 E284.897
G1 X89.814 Y216.453 E284.91617
G1 X89.65 Y215.953 E284.93542
G1 X89.65 Y84.172 E289.75678
G1 X89.797 Y83.533 E289.78077
G1 X90.115 Y83.072 E289.80126
G0 F6000 X90.453 Y83.355
G1 F1200 X90.677 Y83.128 E289.81293
G1 X91.037 Y82.911 E289.82831
G1 X91.422 Y82.785 E289.84313
G1 X208.472 Y82.785 E294.12554
G1 X208.984 Y82.903 E294.14476
G1 X209.34 Y83.148 E294.16057
G1 X209.567 Y83.372 E294.17224
G1 X209.784 Y83.732 E294.18762
G1 X209.91 Y84.117 E294.20244
G1 X209.91 Y215.781 E299.01952
G1 X209.814 Y216.19 E299.03489
G1 X209.619 Y216.579 E299.05081
G1 X209.246 Y216.938 E299.06975
G1 X208.851 Y217.15 E299.08615
G1 X208.509 Y217.215 E299.09889
G1 X91.528 Y217.215 E303.37877
G1 X91.016 Y217.097 E303.39799
G1 X90.66 Y216.852 E303.4138
G1 X90.433 Y216.628 E303.42547
G1 X90.216 Y216.268 E303.44085
G1 X90.09 Y215.883 E303.45567
G1 X90.09 Y84.223 E308.2726
G1 X90.208 Y83.711 E308.29183
G1 X90.453 Y83.355 E308.30764
G0 F6000 X90.815 Y83.605
G1 F1200 X90.95 Y83.477 E308.31444
G1 X91.264 Y83.288 E308.32785
G1 X91.491 Y83.225 E308.33647
G1 X208.421 Y83.225 E312.61449
G1 X208.804 Y83.313 E312.62887
G1 X209.09 Y83.51 E312.64157
G1 X209.218 Y83.645 E312.64838
G1 X209.407 Y83.959 E312.66179
G1 X209.47 Y84.186 E312.67041
G1 X209.47 Y215.728 E317.48302
G1 X209.397 Y216.041 E317.49478
G1 X209.259 Y216.315 E317.50601
G1 X208.984 Y216.579 E317.51995
G1 X208.702 Y216.731 E317.53167
G1 X208.509 Y216.775 E317.53892
G1 X91.579 Y216.775 E321.81693
G1 X91.196 Y216.687 E321.83131
G1 X90.91 Y216.49 E321.84402
G1 X90.782 Y216.355 E321.85082
G1 X90.593 Y216.041 E321.86423
G1 X90.53 Y215.814 E321.87285
G1 X90.53 Y84.274 E326.68539
G1 X90.618 Y83.891 E326.69977
G1 X90.815 Y83.605 E326.71248
G0 F6000 X91.177 Y83.854
G1 F1200 X91.491 Y83.665 E326.72588
G1 X208.37 Y83.665 E331.00204
G1 X208.626 Y83.724 E331.01165
G1 X208.841 Y83.872 E331.0212
G1 X209.03 Y84.186 E331.03461
G1 X209.03 Y215.675 E335.84528
G1 X208.968 Y215.941 E335.85528
G1 X208.879 Y216.093 E335.86172
G1 X208.702 Y216.241 E335.87016
G1 X208.509 Y216.335 E335.87802
G1 X91.63 Y216.335 E340.15417
G1 X91.374 Y216.276 E340.16378
G1 X91.159 Y216.128 E340.17333
G1 X90.97 Y215.814 E340.18674
G1 X90.97 Y84.325 E344.99741
G1 X91.029 Y84.069 E345.00702
G1 X91.177 Y83.854 E345.01657
G0 F6000 X91.449 Y84.2
G1 F1200 X91.57 Y84.105 E345.0222
G1 X208.37 Y84.105 E349.29547
G1 X208.495 Y84.144 E349.30026
G1 X208.59 Y84.265 E349.30588
G1 X208.59 Y215.675 E354.11367
G1 X208.551 Y215.8 E354.11846
G1 X208.43 Y215.895 E354.12409
G1 X91.63 Y215.895 E358.39735
G1 X91.505 Y215.856 E358.40214
G1 X91.41 Y215.735 E358.40777
G1 X91.41 Y84.325 E363.21556
G1 X91.449 Y84.2 E363.22035
G1 F1500 E361.22035
;MESH:geh??useabdeckung_r??ckseite4.stl
G0 F6000 X91.449 Y83.66
G0 X95.997 Y83.66
G0 X95.997 Y85.463
;TYPE:WALL-INNER
G1 F1500 E363.22035
G1 F1100 X96.657 Y85.425 E363.24673
G1 F1113.9 X97.262 Y85.459 E363.27061
G1 F1500 E361.27061
G0 F6000 X207.71 Y215.015
G1 F1500 E363.27061
